config/expand/iconfont/module-menu/module-caiwuguanli_active.svg

<?xml version="1.0" encoding="UTF-8"?>
<svg width="20px" height="20px" viewBox="0 0 20 20" version="1.1" xmlns="http://www.w3.org/2000/svg" xmlns:xlink="http://www.w3.org/1999/xlink">
    <!-- Generator: Sketch 53 (72520) - https://sketchapp.com -->
    <title>caiwuguanliActive</title>
    <desc>Created with Sketch.</desc>
    <g id="Page-2" stroke="none" stroke-width="1" fill="none" fill-rule="evenodd">
        <g id="图标" transform="translate(-1094.000000, -343.000000)" fill="#FFFFFF">
            <g id="caiwuguanliActive" transform="translate(1094.000000, 343.000000)">
                <path d="M9.76279103,0.838891232 C5.83297214,0.81508581 2.27668258,3.13414622 0.75607063,6.71218369 C-0.76454132,10.2902212 0.0508471701,14.4205687 2.82113761,17.1727732 C5.59142805,19.9249776 9.76948449,20.7554751 13.4025555,19.2761055 C17.0356266,17.7967359 19.406176,14.2996765 19.40625,10.4193925 C19.4063504,5.1510965 15.098341,0.871212064 9.76279103,0.838891232 Z M9.703125,18.1899003 C6.62858871,18.1899003 3.48907044,16.0862398 2.31249635,13.2815956 C1.13592225,10.4769514 2.15950743,7.00399673 4.33353289,4.857415 C6.50755835,2.71083327 10.025972,2.21999732 12.8664731,3.38171899 C15.7069743,4.54344065 17.7494698,7.3114454 17.7494698,10.3471704 C17.7532651,12.3389213 16.5852502,14.5212175 15.1588612,15.9296005 C13.7324722,17.3379836 11.7203401,18.1936477 9.703125,18.1899003 Z" id="Shape" fill-rule="nonzero"></path>
                <polygon id="Shape" points="12.9375 12.9032258 10.235 12.6590846 7.1875 12.892611 7.39450001 10.3344362 7.1875 7.93548387 10.2005 8.16901019 12.9375 7.93548387 12.7075 10.4193548"></polygon>
            </g>
        </g>
    </g>
</svg>

<svg width="20" height="20" xmlns="http://www.w3.org/2000/svg"><g><path d="M9.763.839C5.833.815 2.277 3.134.756 6.712a9.492 9.492 0 002.065 10.46c2.77 2.753 6.948 3.583 10.582 2.104 3.633-1.48 6.003-4.976 6.003-8.857 0-5.268-4.308-9.548-9.643-9.58zm-.06 17.35c-3.074 0-6.214-2.103-7.39-4.907-1.177-2.805-.153-6.278 2.02-8.425 2.175-2.146 5.693-2.637 8.533-1.475 2.841 1.161 4.883 3.93 4.883 6.965.004 1.992-1.164 4.174-2.59 5.583-1.427 1.408-3.439 2.264-5.456 2.26z"/><path d="M12.938 12.903l-2.703-.244-3.047.234.207-2.559-.207-2.399 3.013.234 2.736-.234-.23 2.484z"/></g></svg>
